X:1
T:Barmouth (Frost), 85.88.57.777
T:Barmouth (Frost), 85.88.57.777
T:Charles Joseph Frost, 1889
T:Public Domain Courtesy of the Cyber Hymnal™
C:Charles Joseph Frost, 1889
Z:Public Domain
Z:Courtesy of the Cyber Hymnal™
%%score ( 1 2 ) ( 3 4 )
L:1/8
Q:1/4=115
M:none
K:G
V:1 treble 
V:2 treble 
V:3 bass 
V:4 bass 
V:1
 D3 E F2 G2 | [Gc]2 [GB]2 [FA]2 G2 | [Ge]3 [Gd] [Fc]2 [GB]2 | [FA]6 z2 | [Ad]3 A [Gc]2 [GB]2 | %5
 [FA]2 [FB]2 [EA]2 [EG]2 | [Ee]3 [EB] [Ed]2 [Fc]2 | [^GB]2 [Gc]2 [GB]2 A2 | %8
 [EG]3 [FA] [GB]2 [G^c]2 | [Fd]6 z2 | [DA]3 D [DE]2 [DF]2 | [DG]2 [DA]2 [DB]4 | %12
 [EB]3 E [EF]2 [E^G]2 | [EA]2 [EB]2 [Ec]4 | [Fc]3 [DF] [EG]2 [FA]2 | [GB]2 [Gc]2 [Ad]4 | %16
 [Gd]3 [Ge] [=Fd]2 [Ec]2 | [EB]4 [FA]4 | G6 z2 |] %19
V:2
 D3 E F2 G2 | x6 G2 | x8 | x8 | x3 A x4 | x8 | x8 | x6 A2 | x8 | x8 | x3 D x4 | x8 | x3 E x4 | x8 | %14
 x8 | x8 | x8 | x8 | G6 x2 |] %19
V:3
 D,3 E, F,2 G,2 | [C,C]2 [D,D]2 [^D,C]2 [E,B,]2 | C3 [B,D] [A,D]2 [G,D]2 | [D,D]6 z2 | %4
 [F,D]3 [F,D] [G,D]2 [G,D]2 | [^D,C]2 [D,B,]2 [E,B,]2 [E,B,]2 | [E,G,]3 [E,G,] [E,^G,]2 [E,A,]2 | %7
 [E,B,]2 [E,E]2 [A,,D]2 [A,,C]2 | [E,B,]3 [D,D] [G,D]2 A,2 | [F,A,]6 z2 | %10
 [C,F,]3 [C,F,] [C,G,]2 [C,A,]2 | [B,,G,]2 [A,,F,]2 [G,,G,]4 | [D,^G,]3 [D,G,] [D,A,]2 [D,B,]2 | %13
 [C,A,]2 [B,,^G,]2 [A,,A,]4 | [D,A,]3 [D,C] [D,B,]2 [D,A,]2 | [D,D]2 (CB,) (A,2 C2) | %16
 [G,B,]3 [G,B,] [^G,B,]2 [A,C]2 | [D,C]4 [D,C]4 | [G,B,]6 z2 |] %19
V:4
 D,3 E, F,2 G,2 | x8 | C3 x5 | x8 | x8 | x8 | x8 | x8 | x6 A,2 | x8 | x8 | x8 | x8 | x8 | x8 | %15
 x2 E,2 F,4 | x8 | x8 | x8 |] %19

